dist/images/ico/ico_arrow_13.svg

<svg width="28" height="29" viewBox="0 0 28 29" fill="none" xmlns="http://www.w3.org/2000/svg">
<path d="M12.1777 10.7105C11.9408 10.9899 11.9408 11.4412 12.1777 11.7206L14.5345 14.5005L12.1777 17.2803C11.9408 17.5597 11.9408 18.011 12.1777 18.2904C12.4146 18.5699 12.7973 18.5699 13.0342 18.2904L15.8223 15.002C16.0592 14.7225 16.0592 14.2712 15.8223 13.9918L13.0342 10.7033C12.8033 10.4311 12.4146 10.4311 12.1777 10.7105Z" fill="#A4A4A4"/>
</svg>

<svg width="28" height="29" fill="none" xmlns="http://www.w3.org/2000/svg"><path d="M12.178 10.71a.807.807 0 000 1.01l2.356 2.78-2.356 2.78a.807.807 0 000 1.01c.237.28.62.28.856 0l2.788-3.288a.807.807 0 000-1.01l-2.788-3.289a.547.547 0 00-.856.008z" fill="#A4A4A4"/></svg>
